**kern	**kern
*part1	*part1
*staff2	*staff1
*I"Piano	*
*clefF4	*clefG2
*k[b-]	*k[b-]
=1	=1
4A	16cLL
.	16e
.	16a
.	16e
8r	16c
.	16AJJ
=	=
8GL	16dLL 16f
.	16g
8G	16d 16f
.	16g
8GJ	16d 16f
.	16gJJ
=	=
8CL	16cLL 16e
.	16g
8C	16c 16e
.	16g
8CJ	16c 16e
.	16gJJ
=	=
8GGL	16dLL 16f
.	16g
8GG	16d 16f
.	16g
8GGJ	16d 16f
.	16gJJ
=	=
4C	4e 4g
8r	16.eLL 16.g 16.cc
.	32eJJk 32g 32cc
=	=
4c	4e 4g 4cc
8r	16.eLL 16.g 16.b-X 16.cc
.	32eJJk 32g 32b- 32cc
=	=
4c	4e 4g 4b- 4cc
8r	8r
=	=
8dL	8fL 8ff
8c	8e 8ee
8B-J	8dJ 8dd
=	=
4c	16ccLL
.	16a
.	16f
.	16c
8r	16f
.	16aJJ
=	=
*-	*-
!!!system-decoration: {(s1,s2)}
